!!!OTL: Mailied des 14. Jahrhunderts.
!!!ARE: Europa, Mitteleuropa, Deutschland
!!!SCT: A0579
!!!TXL: @@DE
!!!YEM: Copyright 1995, estate of Helmut Schaffrath.
**kern	**text
*M4/1	*
*met(c|)	*
*clefC1	*
*k[b-]	*
*F:ion	*
!LO:TX:a:t=jon.	!
1ryy	.
2ryy	.
{2f	Jch
=1	=1
1f	weiß
1f	mir
1f	ei-
1d	-nen
=2	=2
0c	mey-
1.g}	-en
{2a	in
=3	=3
!LO:TX:a:t=P:2g in the source:problem	!
!LO:N:vis=2	!
1g/	di-
!LO:TX:a:t=P:2f in the source:problem	!
!LO:N:vis=2	!
1f	-ſer
1e	heil-
1d	-gen
=4	=4
0c	ʒit;}
1r	.
2r}	.
{2f	Den
=5	=5
1f	mey-
1f	-en,
1f	den
1d	ich
=6	=6
0c	mei-
1.g}	-ne,
{2a	der
=7	=7
!LO:TX:a:t=P:2g in the source:problem	!
!LO:N:vis=2	!
1g/	ew-
!LO:TX:a:t=P:2f in the source:problem	!
!LO:N:vis=2	!
1f	-ge
1e	fröi-
1d	-de
=8	=8
0c	git}
1r}	.
{1c	Den
=9	=9
1f	mei-
1f	-en,
1e	den
1e	ich
=10	=10
0f	mei-
1.g}	-ne,
{2g	dʒ
=11	=11
1g	iſt
1g	der
1a	ſüe-
1f	-ße
=12	=12
00gll}	gott,(der)
=13	=13
{1.cc	hie
2b-	uff
1a	di-
1g	-ſer
=14	=14
0f	er-
1b-}	-den
{1b-	leyt
=15	=15
1a	vil
1g	me-
1f	-ni-
1e	-gen
=16	=16
0f/ll}	ſpott.
==	==
!!!GTL: Geistliche Volkslieder
!!!AGN: Romanze, Ballade, Lied, religioeses Lied
!! Triller 1555
!!!ONB: ESAC (Essen Associative Code) Database: ALTDEU
!!!AMT: simple quadruple
!!!AIN: vox
!!!EED: Helmut Schaffrath
!!!EEV: 1.0
!!!RDF**kern: l = terminal long
!!!AMD: Ionian
!!!URL-scan: https://rosdok.uni-rostock.de/mcrviewer/recordIdentifier/rosdok_ppn738218359/iview2/phys_0760.iview2?x=-171.61612513683053&y=1299.8061889843084&scale=0.5692057392176044&rotation=0&layout=singlePageLayout&logicalDiv=log_0021
!!!ENC: Anna Maria Matuszewska
!!!EEV: 2024/21/03
*-	*-
